!!!OTL: EIN SULTAN HATT EIN TOECHTERLEIN
!!!ARE: Europa, Mitteleuropa, Deutschland, Schlesien, Glatz
!!!SCT: E2127A
!!!YEM: Copyright 1995, estate of Helmut Schaffrath.
**kern
*ICvox
*Ivox
*M3/4
*k[f#]
*G:
{8d
=1
8g
8g
4g
4a
=2
8cc
8b
4.b}
{8cc
=3
8b
8dd
4cc
4b
=4
4a
4g
8r}
{8d
=5
8g
8g
4g
4a
=6
8cc
8b
4.b}
{8cc
=7
8b
8dd
4cc
4b
=8
4a
4g
8r}
{8dd
=9
8dd
8dd
4b
4dd
=10
8dd
8b
4.cc}
{8cc
=11
8b
8a
4g
4a
=12
4d
4g
8r}
{8dd
=13
8dd
8dd
4b
4dd
=14
8dd
8b
4.cc}
{8cc
=15
8b
8a
4g
4a
=16
4d
4g
8r}
==
!!!AGN: geistlich, Heiligen - Lied, Legende
!!!ONB: ESAC (Essen Associative Code) Database: ERK3
!!!AMT: simple triple
!!!AIN: vox
!!!EED: Helmut Schaffrath
!!!EEV: 1.0
*-
